X: 1
T: Dr. Ross's 50th Welcome To The Argyllshire Gathering
M: 4/4
L: 1/8
R: reel
K: Amix
|: e| A/2A/2A Ac ecAc | ceea c2 cA |ce e/2e/2e ecAc | Bdgd BGGB |
A/2A/2A Ac ecAc | ceea c/2c/2c cA |ce e/2e/2e edBe | A/2A/2A AB A/2A/2A A :|
|: g| a/2a/2a af ecAd | ceea c/2c/2c cA |ce e/2e/2e ecAc | Bdgd BGGB |
[1 a/2a/2a ae Acec | ecaA c/2c/2c cA |ce e/2e/2e edBe | A/2A/2A AB A/2A/2A A :|
[2 A/2A/2A Ac ecAc | eAfe c/2c/2c cA |ce e/2e/2e edBe | A/2A/2A AB A/2A/2A A ||
|: e| AAAB AAAc | eAfA cA A/2A/2A |eA A/2A/2A Acec | d/2d/2d dc BGGB |
AAAB AAAc | eAfA cA A/2A/2A |ce e/2e/2e edBe | A/2A/2A AB A/2A/2A A :|
|: g| aA A/2A/2A eA A/2A/2A | ecca c2 cA |ceae cAAc | d/2d/2d dc BGGB |
[1 aA A/2A/2A eA A/2A/2A | Acea c2 cA |ce e/2e/2e edBe | A/2A/2A AB A/2A/2A A :|
[2 ABcA BcdB | ceea cA A/2A/2A |ce e/2e/2e edBe | A/2A/2A AB A/2A/2A A ||
